public/sheesh/icons24.svg

<svg fill="none" height="60" viewBox="0 0 61 60" width="61" xmlns="http://www.w3.org/2000/svg" xmlns:xlink="http://www.w3.org/1999/xlink"><linearGradient id="a"><stop offset="0" stop-color="#34c796"/><stop offset="1" stop-color="#0b7a55"/></linearGradient><linearGradient id="b" gradientUnits="userSpaceOnUse" x1="30.9004" x2="30.9004" xlink:href="#a" y1="0" y2="60"/><linearGradient id="c" gradientUnits="userSpaceOnUse" x1="30.9007" x2="30.9007" xlink:href="#a" y1="16.666" y2="43.3327"/><circle cx="30.9004" cy="30" fill="#151722" r="29" stroke="url(#b)" stroke-width="2"/><path d="m30.9007 16.666c-7.36 0-13.3333 5.9733-13.3333 13.3333s5.9733 13.3334 13.3333 13.3334 13.3333-5.9734 13.3333-13.3334-5.9733-13.3333-13.3333-13.3333zm-4.36 7.5467c1.08 0 1.9733.88 1.9733 1.9733 0 1.08-.88 1.9733-1.9733 1.9733-1.08 0-1.9733-.88-1.9733-1.9733s.88-1.9733 1.9733-1.9733zm.16 10.8533c-.2.2-.4533.2933-.7067.2933-.2533 0-.5066-.0933-.7066-.2933-.3867-.3867-.3867-1.0267 0-1.4133l8.7333-8.7334c.3867-.3866 1.0267-.3866 1.4133 0 .3867.3867.3867 1.0267 0 1.4134zm8.56.72c-1.08 0-1.9733-.88-1.9733-1.9733 0-1.08.88-1.9734 1.9733-1.9734 1.08 0 1.9733.88 1.9733 1.9734 0 1.0933-.88 1.9733-1.9733 1.9733z" fill="url(#c)"/></svg>

<svg width="61" height="60" viewBox="0 0 61 60" fill="none" xmlns="http://www.w3.org/2000/svg">
<circle cx="30.9004" cy="30" r="29" fill="#151722" stroke="url(#paint0_linear_415_12437)" stroke-width="2"/>
<path d="M30.9007 16.666C23.5407 16.666 17.5674 22.6393 17.5674 29.9993C17.5674 37.3593 23.5407 43.3327 30.9007 43.3327C38.2607 43.3327 44.234 37.3593 44.234 29.9993C44.234 22.6393 38.2607 16.666 30.9007 16.666ZM26.5407 24.2127C27.6207 24.2127 28.514 25.0927 28.514 26.186C28.514 27.266 27.634 28.1593 26.5407 28.1593C25.4607 28.1593 24.5674 27.2793 24.5674 26.186C24.5674 25.0927 25.4474 24.2127 26.5407 24.2127ZM26.7007 35.066C26.5007 35.266 26.2474 35.3593 25.994 35.3593C25.7407 35.3593 25.4874 35.266 25.2874 35.066C24.9007 34.6793 24.9007 34.0393 25.2874 33.6527L34.0207 24.9193C34.4074 24.5327 35.0474 24.5327 35.434 24.9193C35.8207 25.306 35.8207 25.946 35.434 26.3327L26.7007 35.066ZM35.2607 35.786C34.1807 35.786 33.2874 34.906 33.2874 33.8127C33.2874 32.7327 34.1674 31.8393 35.2607 31.8393C36.3407 31.8393 37.234 32.7193 37.234 33.8127C37.234 34.906 36.354 35.786 35.2607 35.786Z" fill="url(#paint1_linear_415_12437)"/>
<defs>
<linearGradient id="paint0_linear_415_12437" x1="30.9004" y1="0" x2="30.9004" y2="60" gradientUnits="userSpaceOnUse">
<stop stop-color="#34C796"/>
<stop offset="1" stop-color="#0B7A55"/>
</linearGradient>
<linearGradient id="paint1_linear_415_12437" x1="30.9007" y1="16.666" x2="30.9007" y2="43.3327" gradientUnits="userSpaceOnUse">
<stop stop-color="#34C796"/>
<stop offset="1" stop-color="#0B7A55"/>
</linearGradient>
</defs>
</svg>
